newicons/super_proxy.svg

<?xml version="1.0" encoding="UTF-8" standalone="no"?>
<svg
   id="Layer_1"
   data-name="Layer 1"
   version="1.1"
   viewBox="0 0 48 48"
   xml:space="preserve"
   xmlns="http://www.w3.org/2000/svg"
   xmlns:svg="http://www.w3.org/2000/svg"><defs
     id="defs1"><style
       id="style1">
      .cls-1 {
        fill: none;
        stroke: #fff;
        stroke-linecap: round;
        stroke-linejoin: round;
      }
    </style></defs><path
     style="fill:none;stroke:#ffffff;stroke-width:0.999999;stroke-linecap:round;stroke-linejoin:round;stroke-dashoffset:0.5"
     d="M 26.869532,14.640314 H 16.066598 V 9.69813 L 5.4999766,19.548646 16.066598,29.162209 V 24.372353 H 31.291983 V 19.14244 l 11.208044,9.647413 -11.208044,9.51201 V 33.461232 H 21.265514"
     id="path1" /></svg>

<?xml version="1.0" encoding="UTF-8"?><svg id="a" xmlns="http://www.w3.org/2000/svg" viewBox="0 0 48 48"><path id="e" d="M26.8695,14.6403h-10.8029v-4.9422l-10.5666,9.8505,10.5666,9.6135v-4.7898h15.2254v-5.2299l11.208,9.6474-11.208,9.512v-4.8406h-10.0265" style="fill:none; stroke:#fff; stroke-linecap:round; stroke-linejoin:round;"/></svg>
